packages/ui/assets/svg/partner_conflux.svg

<svg width="100" height="25" viewBox="0 0 100 25" fill="none" xmlns="http://www.w3.org/2000/svg">
<g id="partner_conflux" clip-path="url(#clip0_205_63)">
<path class="fill" fill-rule="evenodd" clip-rule="evenodd" d="M17.3275 17.0645L15.0191 14.7222L9.82375 19.9944L6.93099 17.0598L12.1275 11.7887L9.81677 9.44409L2.28394 17.0855L9.79581 24.7059L17.3275 17.0645Z" fill="#191919"></path>
<path fill-rule="evenodd" clip-rule="evenodd" d="M19.6568 9.9568L9.84238 0L0 9.9849L0.0314253 14.6519L9.80047 4.74078L19.6394 14.7245L19.6568 9.9568Z" fill="#38A1DB"></path>
<path class="fill" fill-rule="evenodd" clip-rule="evenodd" d="M32.5864 6.30228L31.3967 5.99326L30.3513 5.80129L29.1814 5.69593L28.5505 5.68188L28.0138 5.69944L27.0267 5.84108L26.1559 6.13489L25.4133 6.64057L24.8033 7.37451L24.3307 8.38471L24.0105 9.68872L23.8534 11.3544L23.8336 12.326L23.8534 13.3315L23.9116 14.2399L24.1479 15.7639L24.532 16.924L25.0559 17.7832L26.1047 18.5979L26.9755 18.8741L27.9719 19.0076L28.5156 19.024L29.1663 19.0158L30.3362 18.9538L31.3443 18.8227L32.5864 18.5101V16.4897L32.3117 16.5248L31.9962 16.5564L30.7925 16.6372L29.7169 16.6641L29.0918 16.6676L28.5889 16.6465L27.4493 16.3305L26.7811 15.4807L26.5471 14.5337L26.433 13.1782L26.419 12.3447L26.4271 11.6939L26.497 10.5865L26.7507 9.38086L27.3759 8.45026L28.4107 8.08271L29.0917 8.03822L29.64 8.04527L30.6702 8.09912L31.6027 8.19042L32.5863 8.34026L32.5864 6.30228Z" fill="#191919"></path>
<path class="fill" fill-rule="evenodd" clip-rule="evenodd" d="M44.5392 12.3799L44.5183 11.3755L44.4554 10.4707L44.2063 8.96064L43.8967 8.03824L43.211 6.9227L42.4637 6.32454L41.9527 6.0834V12.3799L41.9445 13.0213L41.8747 14.1205L41.6302 15.3168L41.0005 16.2603L39.9353 16.6278L39.2276 16.6676L38.8434 16.6571L37.8993 16.5072L37.0612 15.8705L36.6875 14.9691L36.5152 13.6019L36.485 12.3798L36.4932 11.7138L36.563 10.5889L36.8214 9.36798L37.4722 8.4327L38.5198 8.07803L39.2276 8.03822L39.5966 8.04877L40.5209 8.1986L41.3591 8.81783L41.7327 9.7215L41.9178 11.1168L41.9527 12.3798V6.0834L41.0319 5.83173L39.8713 5.69828L39.2276 5.68188L38.585 5.69828L37.4233 5.83173L36.4338 6.10798L35.6038 6.5961L34.9321 7.316L34.4257 8.33438L34.0858 9.66532L33.9205 11.3755L33.8996 12.3798L33.9205 13.3842L33.9822 14.289L34.2313 15.7991L34.6597 16.9591L35.2441 17.8194L35.9914 18.4036L36.9041 18.7758L37.9832 18.9619L39.2276 19.024L39.8632 19.0076L41.0156 18.8847L42.0191 18.6166L42.8572 18.1378L43.5219 17.4273L44.0202 16.4171L44.3519 15.0932L44.5184 13.3842L44.5392 12.3799Z" fill="#191919"></path>
<path class="fill" fill-rule="evenodd" clip-rule="evenodd" d="M56.6143 5.80597H54.0289V14.4529L48.6136 5.80597H46.5333V18.9174H49.1374V10.2717L54.5353 18.9174H56.6143V5.80597Z" fill="#191919"></path>
<path class="fill" fill-rule="evenodd" clip-rule="evenodd" d="M67.2902 6.03659L66.2903 5.94762L64.7292 5.87037L63.7328 5.83525L62.8108 5.81652L61.7003 5.80597L61.3592 5.82237L60.3371 6.07169L59.4431 6.67336L58.8611 7.75965L58.7481 8.80028V18.9174H61.3336V13.8852L66.4521 13.7436V11.6705L61.3336 11.5289V9.27903L61.7515 8.40345L62.4162 8.23372H67.2902V6.03659Z" fill="#191919"></path>
<path class="fill" fill-rule="evenodd" clip-rule="evenodd" d="M76.7601 16.5435H72.6718L72.4297 16.5283L71.5974 15.9454L71.5182 15.3917V5.80597H68.9328V15.8166L68.9805 16.5974L69.3659 17.7937L70.133 18.5183L71.2773 18.8729L71.9909 18.9174H76.7602L76.7601 16.5435Z" fill="#191919"></path>
<path class="fill" fill-rule="evenodd" clip-rule="evenodd" d="M87.9493 5.80597H85.3464V14.6823L85.3057 15.1833L84.7004 16.2064L83.4455 16.622L82.9007 16.65L82.3477 16.622L81.4397 16.4007L80.5993 15.6047L80.4375 14.6823V5.80597H77.852V14.6999L77.8741 15.3273L78.058 16.4077L78.4293 17.2564L79.2837 18.173L80.4502 18.7149L81.364 18.9057L82.3686 18.9947L82.9006 19.0064L83.4244 18.9947L84.4209 18.9057L85.3405 18.7149L86.5 18.173L87.3544 17.2564L87.7327 16.4077L87.9259 15.3273L87.9492 14.6999L87.9493 5.80597Z" fill="#191919"></path>
<path class="fill" fill-rule="evenodd" clip-rule="evenodd" d="M100 5.80597H97.1526L94.637 10.2892L91.8769 5.80597H89.011L93.0294 12.3447L89.0645 18.9174H91.9293L94.3926 14.5407L97.0828 18.9174H99.9476L95.9827 12.4864L100 5.80597Z" fill="#191919"></path>
</g>
<defs>
<clipPath id="clip0_205_63">
<rect width="100" height="24.7059" fill="white"></rect>
</clipPath>
</defs>
</svg>

<svg width="100" height="25" fill="none" viewBox="0 0 100 25" xmlns="http://www.w3.org/2000/svg"><g clip-path="url(#clip0_205_63)"><path class="fill" fill-rule="evenodd" clip-rule="evenodd" d="m17.328 17.064-2.309-2.342-5.195 5.272L6.93 17.06l5.196-5.271-2.31-2.345-7.533 7.641 7.512 7.62 7.532-7.64Z" fill="#191919"/><path fill-rule="evenodd" clip-rule="evenodd" d="M19.657 9.957 9.842 0 0 9.985l.031 4.667 9.77-9.911 9.838 9.984.018-4.768Z" fill="#38A1DB"/><path class="fill" fill-rule="evenodd" clip-rule="evenodd" d="m32.586 6.302-1.19-.309-1.045-.192-1.17-.105-.63-.014-.537.017-.987.142-.871.294-.743.506-.61.734-.472 1.01-.32 1.304-.158 1.665-.02.972.02 1.005.059.909.236 1.524.384 1.16.524.86 1.049.814.87.276.997.134.544.016.65-.008 1.17-.062 1.008-.131 1.242-.313v-2.02l-.274.035-.316.031-1.203.081-1.076.027-.625.004-.503-.021-1.14-.316-.668-.85-.234-.947-.114-1.356-.014-.833.008-.651.07-1.108.254-1.205.625-.93 1.035-.368.68-.045.549.007 1.03.054.933.091.983.15V6.302ZM44.54 12.38l-.022-1.005-.063-.904-.249-1.51-.31-.923-.685-1.115-.747-.598-.511-.242v6.297l-.009.641-.07 1.1-.244 1.196-.63.943-1.065.368-.707.04-.385-.01-.944-.15-.838-.637-.373-.902-.173-1.367-.03-1.222.008-.666.07-1.125.258-1.221.651-.935 1.048-.355.708-.04.369.01.924.15.838.62.374.904.185 1.395.035 1.263V6.083l-.921-.251-1.16-.134-.644-.016-.643.016-1.162.134-.99.276-.83.488-.67.72-.507 1.018-.34 1.331-.166 1.71-.02 1.005.02 1.004.062.905.25 1.51.428 1.16.584.86.747.585.913.372 1.08.186 1.244.062.635-.016 1.153-.123 1.003-.268.838-.48.665-.71.498-1.01.332-1.324.166-1.709.021-1.004ZM56.614 5.806H54.03v8.647l-5.415-8.647h-2.08v13.111h2.603v-8.645l5.398 8.645h2.08V5.806ZM67.29 6.037l-1-.09-1.56-.077-.997-.035-.922-.018-1.11-.011-.342.016-1.022.25-.894.601-.582 1.087-.113 1.04v10.117h2.586v-5.032l5.118-.141V11.67l-5.118-.142v-2.25l.417-.876.665-.17h4.874V6.038ZM76.76 16.544h-4.088l-.242-.016-.833-.583-.079-.553V5.806h-2.585v10.01l.047.781.386 1.197.767.724 1.144.355.714.044h4.77v-2.373ZM87.95 5.806h-2.604v8.876l-.04.501-.606 1.023-1.255.416-.544.028-.553-.028-.908-.221-.84-.796-.162-.923V5.806h-2.586V14.7l.022.627.184 1.08.371.85.855.916 1.166.542.914.19 1.005.09.532.011.523-.011.997-.09.92-.19 1.159-.542.854-.917.379-.848.193-1.08.023-.628V5.806ZM100 5.806h-2.847l-2.516 4.483-2.76-4.483H89.01l4.018 6.539-3.965 6.572h2.865l2.464-4.376 2.69 4.376h2.865l-3.965-6.43L100 5.805Z" fill="#191919"/></g><defs><clipPath id="clip0_205_63"><path fill="#fff" d="M0 0h100v24.706H0z"/></clipPath></defs></svg>
